X:8
T:Old Joe Clark
C:Traditional
N: Transcribed by Mike Herlihy
R:bluegrass
L:1/8
Q:1/4=210
M:4/4
K:Amix
cd |: "A"e2 f2 =g2 f2 | e2 d2 c4 | e2 f2 =g2 f2 | "E"e4 e4 |
| "A"e2 f2 =g2 f2 | e2 d2 c4 | "A"A2 c2 "Em"B2 =G2 |1 A4 A2 cd :|
|: "A"A4 A2 c2 | e2 d2 c4 | A4 A2 c2 | "G"B2 =G4 FG | "A"A4 A2 c2 | e2 d2 c4 | "A"A2 c2 "Em"B2 =G2 :| "A"A4 A4 | 

